X:1
T:Title
%%score { ( 1 3 ) | ( 2 4 ) }
L:1/8
Q:1/4=108
M:4/4
K:Db
V:1 treble nm="Grand Piano"
V:3 treble 
V:2 bass 
V:4 bass 
V:1
 [FA]2 [DF]>[EG] [FA]2 [Fd]2 | d4 z4 | [CE][DF][EG][FA] [Ac]2 [GB]2 | B4 z4 | D2 FA d2 d2 | %5
w: E.~O.~Excell * * * *|||||
 d3 d d2 [Ad]>[Be] | [Af]3 [Af] [Af]2 [Ge]2 | [Fd]8 | A4[K:bass][K:treble] A4 | A4 z4 | %10
w: |||||
 [GA]2 z2 [GB]2 z2 | [FA]8 | [Fd]2 [Fd]>[Gd] [DAd]2 [DBd]2 |[M:9/8] A3 G F2- F[DAd]>[Be] | %14
w: ||||
[M:4/4] [Af]3 [Af] [Af]2 [Ge]2 | [Fd]8 |] %16
w: ||
V:2
 [D,A,]2 [D,A,]>[D,A,] [D,A,]2 [D,A,]2 | z A,A,A, [A,E]4 | %2
 [A,,A,]2 [A,,A,][A,,A,] [A,,A,]2 [A,,A,]2 | A,A,B,C D4 | D,2 F,A,[K:treble] D2 [_CDA]2 | %5
 [B,DG]3 [=A,D=G] [_A,FA]2[K:bass] [F,D]>[G,D] | [A,C]3 [A,D] [A,,A,]2 [A,,A,]2 | [D,A,]8 | %8
 D,2 D,>D, D,2 D,2 | z2 z[K:treble] d A4 | A,2 A,>A,[K:bass] A,2 A,2 | z2 z A, D4 | %12
 [D,A,]2 [D,A,]>[E,A,] F,2 G,2 |[M:9/8] F,3 B, A,2- A,F,>[G,D] | %14
[M:4/4] [A,D]3 [A,D] [A,,A,]2 [A,,A,]2 | [D,A,]8 |] %16
V:3
 x8 | [DF]FFF c4 | x8 | GGGG [FA]4 | x8 | x8 | x8 | x8 | %8
 [A,F]2[K:bass] [F,D]>[G,E][K:treble] [A,F]2 [B,G]2 | [A,F]8 | C2- [C-Ge]>[CGA] C2- [CGA]2 | %11
 D4 z4 | x8 |[M:9/8] [Dd]6- [Dd] z z |[M:4/4] x8 | x8 |] %16
V:4
 x8 | A,,8 | x8 | D,8 | x4[K:treble] x4 | x6[K:bass] x2 | x8 | x8 | x8 | D,8[K:treble] | %10
 x4[K:bass] x4 | D,8 | x8 |[M:9/8] x9 |[M:4/4] x8 | x8 |] %16

